actions/16/story-editor.svg

<svg xmlns="http://www.w3.org/2000/svg" viewBox="0 0 16 16">
  <defs id="defs3051">
    <style type="text/css" id="current-color-scheme">
      .ColorScheme-Text {
        color:#eff0f1;
      }
      </style>
  </defs>
 <path style="fill:currentColor;fill-opacity:1;stroke:none" 
     d="M 3 2 L 3 14 L 7 14 L 7 13 L 4 13 L 4 5 L 12 5 L 12 7 L 13 7 L 13 2 L 12 2 L 12 4 L 11 4 L 11 2 L 5 2 L 5 4 L 4 4 L 4 2 L 3 2 z M 5 6 L 5 7 L 11 7 L 11 6 L 5 6 z M 5 8 L 5 9 L 8 9 L 8 8 L 5 8 z M 12 8 L 8 12 L 8 14 L 10 14 L 14 10 L 12 8 z M 11.689453 9.6894531 L 12.28125 10.28125 L 10.59375 11.96875 L 10.59375 11.984375 L 9.3125 13.28125 L 8.71875 12.6875 L 11.689453 9.6894531 z M 5 10 L 5 11 L 7 11 L 7 10 L 5 10 z "
     class="ColorScheme-Text"
     />
</svg>

<svg xmlns="http://www.w3.org/2000/svg" viewBox="0 0 16 16">
  <defs id="defs3051">
<style type="text/css" id="current-color-scheme">.ColorScheme-Text {color:#fcfcfc;}</style>
  </defs>
 <path style="fill:currentColor;fill-opacity:1;stroke:none" 
     d="m 3,2 c 0,0 0,8 0,10 0,2 2,2 2,2 H 7 V 13 H 5 C 5,13 4,13 4,12 4,11 4,5 4,5 h 8 v 2 h 1 V 2 H 12 V 4 H 11 V 2 H 5 V 4 H 4 V 2 Z m 2,4 v 1 h 6 V 6 Z M 5,8 V 9 H 8 V 8 Z m 7,0 -4,4 v 2 h 2 l 4,-4 z m -0.310547,1.6894531 0.591797,0.5917969 -1.6875,1.6875 v 0.01563 L 9.3125,13.28125 8.71875,12.6875 Z M 5,10 v 1 h 2 v -1 z"
     class="ColorScheme-Text"
     />
</svg>
